!!!COM: Anon.
!!!OTL: La Pajara Pinta
!! Maria Cadilla de Martinez,
!! Juegos Y Canciones Infantiles de Puerto Rico
!! Talleres Graficos, Cas Baldrich, Brau 93, San Juan, P.R.
!! 1940.  Derechos reservados de la Autora
!! page 134
!! Allegretto
**kern
*clefG2
*k[]
*M6/8
{8g
=
8cc
8cc
8cc
8dd
8dd
8dd
=
4.ee
8cc},
{8ee
8ee
=
8dd
8dd
8dd
8dd
8ee
8dd
=
4.cc},
8r
{8g
8g
!! Repeat from beginning.
=
8cc
8cc
8cc
8dd
8dd
8dd
=
4.ee
8cc},
{8ee
8ee
=
8dd
8dd
8dd
8dd
8ee
8dd
=
4.cc},
{4gg
8b
=
4cc},
8r
{4gg
8b
=
4.cc},
8r
{8g
8g
=
8cc
8cc
8cc
8dd
8dd
8dd
=
4ee
8cc},
{8ff
8ee
8dd
=
4ee
8cc},
{8ff
8ee
8dd
=
4ee
8cc},
{8ff
8ee
8dd
=
4ee
8cc},
{8ff
8ee
8dd
=
4ee
8cc},
{8ff
8ee
8dd
=
4ee
8cc},
{8ff
8ee
8dd
=
8ee
8cc},
{8cc
8ff
8ee
8dd
=
4.ee
8cc},
{8ee
8ee
=
8dd
8dd
8dd
8dd
8ee
8dd
=
!! Augmentation dot added:
4.cc}
4r
==
*-
